assets/icons/ext-link.icon.svg

<svg xmlns="http://www.w3.org/2000/svg" viewBox="0 0 24 24">
    <g stroke="none" stroke-width="1" fill="none" fill-rule="evenodd">
        <path d="M14.5,2.13603897 C14.5,1.58375422 14.9477153,1.13603897 15.5,1.13603897 C16.0522847,1.13603897 16.5,1.58375422 16.5,2.13603897 L16.5,14.863961 C16.5,15.4162458 16.0522847,15.863961 15.5,15.863961 C14.9477153,15.863961 14.5,15.4162458 14.5,14.863961 L14.5,2.13603897 Z"
              fill="#000000" fill-rule="nonzero"
              transform="translate(15.500000, 8.500000) rotate(45.000000) translate(-15.500000, -8.500000) "/>
        <path d="M19,5 L15,5 C14.4477153,5 14,4.55228475 14,4 C14,3.44771525 14.4477153,3 15,3 L20,3 C20.5522847,3 21,3.44771525 21,4 L21,9 C21,9.55228475 20.5522847,10 20,10 C19.4477153,10 19,9.55228475 19,9 L19,5 Z"
              fill="#000000" fill-rule="nonzero"/>
        <path d="M17,13.5000015 C17,12.9477168 17.4477152,12.5000015 18,12.5000015 C18.5522847,12.5000015 19,12.9477168 19,13.5000015 L19,19.1250041 C19,20.7128208 17.7128189,22 16.1250013,22 L4.87499867,22 C3.28718109,22 2,20.7128208 2,19.1250039 L2.00000232,7.87499354 C2.00000232,6.28717812 3.28718237,5 4.87499951,5 C8.90694118,5.00000316 8.90694118,5.00000316 10.968755,5.00000379 C11.5210397,5.00000379 11.968755,5.44771904 11.968755,6.00000379 C11.968755,6.55228854 11.5210397,7.00000379 10.968755,7.00000379 C8.9069398,7.00000316 8.9069398,7.00000316 4.87499867,7 C4.39175119,7 4.00000232,7.39174829 4.00000232,7.87499374 L4,19.1250041 C4,19.6082507 4.39174991,20 4.87499867,20 L16.1250013,20 C16.6082501,20 17,19.6082507 17,19.1250041 L17,13.5000015 Z"
              fill="#000000" fill-rule="nonzero"/>
    </g>
</svg>

<svg xmlns="http://www.w3.org/2000/svg" viewBox="0 0 24 24"><path d="M19.29,3.29c.39-.39,1.02-.39,1.41,0s.39,1.02,0,1.41l-9,9c-.39.39-1.02.39-1.41,0s-.39-1.02,0-1.41L19.29,3.29Z"/><path d="M19,5h-4c-.55,0-1-.45-1-1s.45-1,1-1h5c.55,0,1,.45,1,1v5c0,.55-.45,1-1,1s-1-.45-1-1v-4Z"/><path d="M17,13.5c0-.55.45-1,1-1s1,.45,1,1v5.63c0,1.59-1.29,2.87-2.87,2.87H4.87c-1.59,0-2.87-1.29-2.87-2.87V7.87c0-1.59,1.29-2.87,2.87-2.87q4.03,0,6.09,0c.55,0,1,.45,1,1s-.45,1-1,1q-2.06,0-6.09,0c-.48,0-.87.39-.87.87v11.25c0,.48.39.87.87.87h11.25c.48,0,.87-.39.87-.87v-5.63Z"/></svg>
